public/images/home/add-vote.svg

<svg fill="none" height="51" viewBox="0 0 45 51" width="45" xmlns="http://www.w3.org/2000/svg" xmlns:xlink="http://www.w3.org/1999/xlink"><linearGradient id="a" gradientUnits="userSpaceOnUse" x1="22.0636" x2="22.0636" y1="0" y2="50.4135"><stop offset="0" stop-color="#9feb96"/><stop offset="1" stop-color="#4ac6c1"/></linearGradient><path d="m14.6048 9.07779c-.1786.08932-.3349.20098-.4689.3573-1.4962 1.87581-2.2778 4.55561-2.8585 7.36941-.5359 2.6798-.8262 5.4936-1.1389 7.9054l-9.870521 12.3716c-.379637.4913-.3126421 1.2953.15632 1.7196l10.004501 9.1112-10.4288-.0446v2.5235l37.8073.0223v-2.5012h-17.6196l14.1582-16.1457c.4243-.4689.3797-1.2505-.067-1.6972l-3.7963-3.7963c.6922-.603 1.3399-1.2283 1.8981-1.8535 1.6526-1.8982 2.6798-4.1537 2.8585-7.1461l8.218-3.9527c.402-.2233.6699-.67.6699-1.1389v-10.78617c-.0223-.625282-.5582-1.183571-1.1612-1.228234-10.8308-1.272896-20.277 5.002264-28.3611 8.910294zm3.7964 9.33461 4.444 4.4216c-1.2506 1.4292-2.5235 2.7691-3.4391 3.975-1.2059 1.4963-1.7865 3.5508-.7593 5.047 2.2109 1.8312 4.8907.5359 6.7888-1.2283 1.0496-.9379 2.2109-1.8758 3.1711-2.6798l3.0594 3.0595-14.8281 16.9049h-2.6798l-11.1881-10.2055c5.15858-6.4538 10.3172-12.8406 15.4311-19.2944z" fill="url(#a)"/></svg>

<svg width="45" height="51" viewBox="0 0 45 51" fill="none" xmlns="http://www.w3.org/2000/svg">
<path d="M14.6048 9.07779C14.4262 9.16711 14.2699 9.27877 14.1359 9.43509C12.6397 11.3109 11.8581 13.9907 11.2774 16.8045C10.7415 19.4843 10.4512 22.2981 10.1385 24.7099L0.267979 37.0815C-0.111658 37.5728 -0.0446631 38.3768 0.424299 38.8011L10.4288 47.9123L0 47.8677V50.3912L37.8073 50.4135V47.9123H20.1877L34.3459 31.7666C34.7702 31.2977 34.7256 30.5161 34.2789 30.0694L30.4826 26.2731C31.1748 25.6701 31.8225 25.0448 32.3807 24.4196C34.0333 22.5214 35.0605 20.2659 35.2392 17.2735L43.4572 13.3208C43.8592 13.0975 44.1271 12.6508 44.1271 12.1819V1.39573C44.1048 0.770448 43.5689 0.212159 42.9659 0.167496C32.1351 -1.1054 22.6889 5.16976 14.6048 9.07779ZM18.4012 18.4124L22.8452 22.834C21.5946 24.2632 20.3217 25.6031 19.4061 26.809C18.2002 28.3053 17.6196 30.3598 18.6468 31.856C20.8577 33.6872 23.5375 32.3919 25.4356 30.6277C26.4852 29.6898 27.6465 28.7519 28.6067 27.9479L31.6661 31.0074L16.838 47.9123H14.1582L2.9701 37.7068C8.12868 31.253 13.2873 24.8662 18.4012 18.4124Z" fill="url(#paint0_linear)"/>
<defs>
<linearGradient id="paint0_linear" x1="22.0636" y1="0" x2="22.0636" y2="50.4135" gradientUnits="userSpaceOnUse">
<stop stop-color="#9FEB96"/>
<stop offset="1" stop-color="#4AC6C1"/>
</linearGradient>
</defs>
</svg>
